X:74
T:GB/6a/74 God Rest You Merry
%%VWML:GB-6a-74-0
F:http://www.vwml.org/record/GB/6a/74
C:Transcribed by Simon Furey and Lewis Jones
L:1/4
M:4/4
I:linebreak $
K:Edor
D | E B B A | G F E D | A A A/B/ c | B3 :| d | c/B/ A A B/c/ | d c A B/A/ | F E E/F/ G |$ A2 G A | e2 d e | B A G F | E2 E/F/ G | A2 F/G/ A | e2 d e | B A G F | E3 |]

